X:21KOx
T:Captain Kid's Farewell to the Seas
F:www.folkinfo.org
B:Oxford Book of Sea Songs, ISBN 0-19-282155-5
Z:d'Urfey VI 251
M:4/4
L:1/8
K:Gm
D2 |D2 G2 G2 A2 |B4 A2 B2 |c4 B2 A2 | B6 D2 |D2 G2 G2 A2 |B4 A2
G2 |D6 A2 |B2 c2 d2 e2 |f4 d2 d2 |c2 B2 A2 G2 |^F6 D2 |D2 G2 G2
A2 |B4 d2 ^F2 |G4 G2 ^F2 |G6 |]
